docs/images/workflows-icon.svg

<svg viewBox="0 0 118.92 118.92" xmlns="http://www.w3.org/2000/svg"><circle cx="59.46" cy="59.46" fill="#ff495c" r="59.46"/><g fill="#f5f4f3"><path d="m78.63 58.55h-3.24c0-4.36-3-5.81-8-7.68-4.31-1.63-9.2-3.47-9.2-9.34h3.24c0 3.45 2.7 4.65 7.1 6.31s10.1 3.8 10.1 10.71z"/><path d="m47.23 75.24h-3.23c0-14.89 5-20.32 9-24.68 2.55-2.78 4.39-4.8 4.39-8.72h3.24c0 5.18-2.54 8-5.24 10.91-3.85 4.15-8.16 8.85-8.16 22.49z"/><path d="m77.39 42.69h-33.71v-14.63h33.71zm-30.47-3.24h27.23v-8.15h-27.23z"/><path d="m94 71.32h-33.7v-14.63h33.7zm-30.46-3.24h27.24v-8.15h-27.24z"/><path d="m62.62 88.86h-33.72v-14.63h33.72zm-30.48-3.24h27.24v-8.15h-27.24z"/></g></svg>

<svg xmlns="http://www.w3.org/2000/svg" viewBox="0 0 118.92 118.92"><defs><style>.cls-1{fill:#ff495c;}.cls-2{fill:#f5f4f3;}</style></defs><title>workflow-icon</title><g id="Layer_2" data-name="Layer 2"><g id="Layer_1-2" data-name="Layer 1"><circle class="cls-1" cx="59.46" cy="59.46" r="59.46"/><path class="cls-2" d="M78.63,58.55H75.39c0-4.36-3-5.81-8-7.68-4.31-1.63-9.2-3.47-9.2-9.34h3.24c0,3.45,2.7,4.65,7.1,6.31S78.63,51.64,78.63,58.55Z"/><path class="cls-2" d="M47.23,75.24H44c0-14.89,5-20.32,9-24.68,2.55-2.78,4.39-4.8,4.39-8.72h3.24c0,5.18-2.54,8-5.24,10.91C51.54,56.9,47.23,61.6,47.23,75.24Z"/><path class="cls-2" d="M77.39,42.69H43.68V28.06H77.39ZM46.92,39.45H74.15V31.3H46.92Z"/><path class="cls-2" d="M94,71.32H60.3V56.69H94ZM63.54,68.08H90.78V59.93H63.54Z"/><path class="cls-2" d="M62.62,88.86H28.9V74.23H62.62ZM32.14,85.62H59.38V77.47H32.14Z"/></g></g></svg>
